Obsidian-SemiLight/actions/16s/distribute-horizontal-page.svg

<svg viewBox="0 0 16 16" xmlns="http://www.w3.org/2000/svg"><path d="m1 1v14h10 2l2-2v-1-11zm1 1h12v10h-2v2h-10zm1 2v8h4v-8zm6 0v8h2v-1h-1v-6h2v6h1v-7zm-5 1h2v6h-2z" fill="#4d4d4d"/></svg>

<svg xmlns="http://www.w3.org/2000/svg" viewBox="0 0 16 16">
  <defs id="defs3051">
    <style type="text/css" id="current-color-scheme">
      .ColorScheme-Text {
        color:#4d4d4d;
      }
      </style>
  </defs>
 <path style="fill:currentColor;fill-opacity:1;stroke:none" 
     d="M 1 1 L 1 15 L 11 15 L 13 15 L 15 13 L 15 12 L 15 1 L 1 1 z M 2 2 L 14 2 L 14 12 L 12 12 L 12 14 L 2 14 L 2 2 z M 3 4 L 3 12 L 7 12 L 7 4 L 3 4 z M 9 4 L 9 12 L 11 12 L 11 11 L 10 11 L 10 5 L 12 5 L 12 11 L 13 11 L 13 4 L 9 4 z M 4 5 L 6 5 L 6 11 L 4 11 L 4 5 z "
     class="ColorScheme-Text"
     />
</svg>
